X: 77
T: No_16_Song_After_the_Inhabitants_of_Casa_Grande_Were_Killed.krn
N: Derived from No_16_Song_After_the_Inhabitants_of_Casa_Grande_Were_Killed.krn
%%abc-version 2.0
%%abcx-abcm2ps-target-version 5.9.1 (29 Sep 2008)
%%abc-creator hum2abc beta
%%abcx-conversion-date 2019/03/15 08:37:56
%%humdrum-veritas 2894691017
%%humdrum-veritas-data 2325792826
%%linebreak <none>
%%barnumbers 0
L: 1/8
M: 3/4
K: Bb clef=bass
B,2 [I:setbarnb 1]| 
D7/C/C2 | 
C/B,3/- B,3/B,/B,2 | 
G,/F,3/-F,2B,B, | 
C7/B,/B,2 | 
C/B,3/- B,3/B,/B,2 | 
G,/F,3/-F,2B,2 ||  
[M:3/4]B,/B,3/-B,2CB, ||  
[M:2/4]B,2B,2 | 
CB, CB, ||  
[M:3/4]B,2B,4 | 
D2D2C2 | 
B,F,F,4 ||  
[M:2/4]F,4 ||  
[M:3/4]C2B,2C2 | 
B,6 ||  
[M:2/4]B,4 | 
C2C2 ||  
[M:3/4]B,B,B,4 ||  
[M:2/4]B,2B,2 | 
B,2CB, | 
B,2B,2 | 
CB, CB, | 
B,4 |]  



